material/.icons/material/download-multiple.svg

<svg xmlns="http://www.w3.org/2000/svg" viewBox="0 0 24 24"><path d="M9 1v6H5l7 7 7-7h-4V1H9M5 16v2h14v-2H5m0 4v2h14v-2H5z"/></svg>

<?xml version="1.0" encoding="UTF-8"?><!DOCTYPE svg PUBLIC "-//W3C//DTD SVG 1.1//EN" "http://www.w3.org/Graphics/SVG/1.1/DTD/svg11.dtd"><svg xmlns="http://www.w3.org/2000/svg" xmlns:xlink="http://www.w3.org/1999/xlink" version="1.1" id="mdi-download-multiple" width="24" height="24" viewBox="0 0 24 24"><path d="M9,1V7H5L12,14L19,7H15V1H9M5,16V18H19V16H5M5,20V22H19V20H5Z" /></svg>
